svg/other/curtain_line.svg

<?xml version="1.0" encoding="UTF-8"?>
<svg width="24px" height="24px" viewBox="0 0 24 24" version="1.1" xmlns="http://www.w3.org/2000/svg" xmlns:xlink="http://www.w3.org/1999/xlink">
    <title>curtain_line</title>
    <g id="Icon" stroke="none" stroke-width="1" fill="none" fill-rule="evenodd">
        <g id="Other" transform="translate(-338.000000, -96.000000)" fill-rule="nonzero">
            <g id="curtain_line" transform="translate(338.000000, 96.000000)">
                <path d="M24,0 L24,24 L0,24 L0,0 L24,0 Z M12.5935,23.2578 L12.5819,23.2595 L12.5109,23.295 L12.4919,23.2987 L12.4767,23.295 L12.4057,23.2595 C12.3958,23.2564 12.387,23.259 12.3821,23.2649 L12.378,23.2758 L12.3609,23.7031 L12.3659,23.7235 L12.3769,23.7357 L12.4805,23.8097 L12.4953,23.8136 L12.5071,23.8097 L12.6107,23.7357 L12.6233,23.7197 L12.6267,23.7031 L12.6096,23.2758 C12.6076,23.2657 12.601,23.2593 12.5935,23.2578 Z M12.8584,23.1453 L12.8445,23.1473 L12.6598,23.2397 L12.6499,23.2499 L12.6472,23.2611 L12.6651,23.6906 L12.6699,23.7034 L12.6784,23.7105 L12.8793,23.8032 C12.8914,23.8069 12.9022,23.803 12.9078,23.7952 L12.9118,23.7812 L12.8777,23.1665 C12.8753,23.1546 12.8674,23.147 12.8584,23.1453 Z M12.143,23.1473 C12.1332,23.1424 12.1222,23.1453 12.1156,23.1526 L12.1099,23.1665 L12.0758,23.7812 C12.0751,23.7927 12.0828,23.8019 12.0926,23.8046 L12.1083,23.8032 L12.3092,23.7105 L12.3186,23.7024 L12.3225,23.6906 L12.3404,23.2611 L12.3372,23.2485 L12.3278,23.2397 L12.143,23.1473 Z" id="MingCute"></path>
                <path d="M19,3 L5,3 C3.89543,3 3,3.89543 3,5 L3,19 C3,20.1046 3.89543,21.0001856 5,21.0001856 L8,21.0001856 C8.29908,20.998 8.58158,20.8623 8.77,20.63 C8.96799,20.4022 9.05251,20.0972 9,19.8 C9,19.8 8.73,18.42 8.47,16.8 C8.21,15.18 8.06,14.2 8,13.43 C9.13525,12.2737 9.96068,10.8498 10.4,9.29 C10.7959,7.8943 10.9978,6.45076 11,5 L13,5 C13,6.91 13.4,10.88 16,13.43 C15.88,15.53 15,19.76 15,19.8 C14.942,20.0942 15.0191,20.3988 15.21,20.63 C15.4028,20.8677 15.6939,21.0041 16,21.0001856 L19,21.0001856 C20.1046,21.0001856 21,20.1046 21,19 L21,5 C21,3.89543 20.1046,3 19,3 Z M5,19 L5,14 L6,14 C6.07,14.81 6.21,15.86 6.42,17.16 C6.53,17.84 6.65,18.48 6.74,19 L5,19 Z M6.59,12 L5,12 L5,5 L9,5 C8.99624,6.25456 8.82129,7.50274 8.48,8.71 C8.1445,9.9514 7.49338,11.0848 6.59,12 Z M19,19 L17.21,19 C17.45,17.68 17.81,15.55 17.95,14 L19,14 L19,19 Z M19,12 L17.42,12 C15.34,10 15,6.62 15,5 L19,5 L19,12 Z" id="形状" fill="#122446"></path>
            </g>
        </g>
    </g>
</svg>

<svg xmlns="http://www.w3.org/2000/svg" width="24" height="24"><g fill="none" fill-rule="nonzero"><path d="M24 0v24H0V0h24ZM12.594 23.258l-.012.002-.071.035-.02.004-.014-.004-.071-.036c-.01-.003-.019 0-.024.006l-.004.01-.017.428.005.02.01.013.104.074.015.004.012-.004.104-.074.012-.016.004-.017-.017-.427c-.002-.01-.009-.017-.016-.018Zm.264-.113-.014.002-.184.093-.01.01-.003.011.018.43.005.012.008.008.201.092c.012.004.023 0 .029-.008l.004-.014-.034-.614c-.003-.012-.01-.02-.02-.022Zm-.715.002a.023.023 0 0 0-.027.006l-.006.014-.034.614c0 .012.007.02.017.024l.015-.002.201-.093.01-.008.003-.011.018-.43-.003-.012-.01-.01-.184-.092Z"/><path fill="#122446" d="M19 3H5a2 2 0 0 0-2 2v14a2 2 0 0 0 2 2h3a1 1 0 0 0 .77-.37A1 1 0 0 0 9 19.8s-.27-1.38-.53-3-.41-2.6-.47-3.37a9.64 9.64 0 0 0 2.4-4.14c.396-1.396.598-2.84.6-4.29h2c0 1.91.4 5.88 3 8.43-.12 2.1-1 6.33-1 6.37a1 1 0 0 0 .21.83A1 1 0 0 0 16 21h3a2 2 0 0 0 2-2V5a2 2 0 0 0-2-2ZM5 19v-5h1c.07.81.21 1.86.42 3.16.11.68.23 1.32.32 1.84H5Zm1.59-7H5V5h4a13.79 13.79 0 0 1-.52 3.71A7.45 7.45 0 0 1 6.59 12ZM19 19h-1.79c.24-1.32.6-3.45.74-5H19v5Zm0-7h-1.58C15.34 10 15 6.62 15 5h4v7Z"/></g></svg>
